usr/share/icons/biglinux-icons-material/scalable/apps/cudatext-512.svg

<?xml version="1.0" encoding="UTF-8" standalone="no"?>
<svg
   width="24"
   height="24"
   viewBox="0 0 24 24"
   fill="none"
   version="1.1"
   id="svg154"
   sodipodi:docname="cudatext-512.svg"
   inkscape:version="1.2.2 (b0a8486541, 2022-12-01)"
   xml:space="preserve"
   xmlns:inkscape="http://www.inkscape.org/namespaces/inkscape"
   xmlns:sodipodi="http://sodipodi.sourceforge.net/DTD/sodipodi-0.dtd"
   xmlns:xlink="http://www.w3.org/1999/xlink"
   xmlns="http://www.w3.org/2000/svg"
   xmlns:svg="http://www.w3.org/2000/svg"
   xmlns:sketch="http://www.bohemiancoding.com/sketch/ns"><sodipodi:namedview
     id="namedview156"
     pagecolor="#ffffff"
     bordercolor="#000000"
     borderopacity="1"
     inkscape:showpageshadow="0"
     inkscape:pageopacity="1"
     inkscape:pagecheckerboard="false"
     inkscape:deskcolor="#ffffff"
     showgrid="true"
     inkscape:zoom="22.627417"
     inkscape:cx="8.131728"
     inkscape:cy="13.678097"
     inkscape:window-width="1920"
     inkscape:window-height="1052"
     inkscape:window-x="0"
     inkscape:window-y="0"
     inkscape:window-maximized="1"
     inkscape:current-layer="svg154"
     showguides="true"
     guidecolor="#ff0000"
     guideopacity="1"
     inkscape:lockguides="true"
     showborder="true"
     borderlayer="true"><inkscape:grid
       type="xygrid"
       id="grid356"
       color="#000000"
       opacity="0.10196078"
       empcolor="#000000"
       empopacity="0.10196078"
       snapvisiblegridlinesonly="true"
       enabled="true"
       visible="true"
       dotted="false" /><sodipodi:guide
       position="4.003125,23.042969"
       orientation="1,0"
       id="guide764"
       inkscape:locked="true" /><sodipodi:guide
       position="5.0007813,21.049219"
       orientation="1,0"
       id="guide2218"
       inkscape:locked="true" /><sodipodi:guide
       position="3.6445312,20"
       orientation="0,-1"
       id="guide2220"
       inkscape:locked="true" /><sodipodi:guide
       position="3.796875,5"
       orientation="0,-1"
       id="guide2222"
       inkscape:locked="true" /><sodipodi:guide
       position="3.625,4"
       orientation="0,-1"
       id="guide2224"
       inkscape:locked="true" /><sodipodi:guide
       position="19,4.8984375"
       orientation="1,0"
       id="guide2226"
       inkscape:locked="true" /><sodipodi:guide
       position="20,3.3312502"
       orientation="1,0"
       id="guide2228"
       inkscape:locked="true" /><sodipodi:guide
       position="22.875,19"
       orientation="0,-1"
       id="guide2230"
       inkscape:locked="true" /></sodipodi:namedview><defs
     id="defs152"><radialGradient
       id="radialGradient1281"
       cx="0"
       cy="0"
       r="1"
       gradientUnits="userSpaceOnUse"
       gradientTransform="translate(12 1) rotate(90) scale(22)"><stop
         stop-color="#8FC8FF"
         id="stop1277"
         offset="0.00424011"
         style="stop-color:#ffffff;stop-opacity:1;" /><stop
         offset="0.99151897"
         stop-color="#0056A8"
         id="stop1279"
         style="stop-color:#ffffff;stop-opacity:1;" /></radialGradient><radialGradient
       id="paint0_radial_29_23"
       cx="0"
       cy="0"
       r="1"
       gradientUnits="userSpaceOnUse"
       gradientTransform="translate(12 1) rotate(90) scale(22)"><stop
         stop-color="#8FC8FF"
         id="stop147"
         offset="0"
         style="stop-color:#f6f6f6;stop-opacity:1;" /><stop
         offset="1"
         stop-color="#0056A8"
         id="stop149"
         style="stop-color:#cfcfcf;stop-opacity:1;" /></radialGradient><radialGradient
       id="paint0_radial_10_2"
       cx="0"
       cy="0"
       r="1"
       gradientUnits="userSpaceOnUse"
       gradientTransform="matrix(-10.999959,21.999967,-21.999967,-10.999959,17.5,1)"
       xlink:href="#paint0_radial_29_23"><stop
         stop-color="#777777"
         id="stop2847" /><stop
         offset="1"
         stop-color="#222222"
         id="stop2849" /></radialGradient><linearGradient
       x1="12"
       y1="1"
       x2="12"
       y2="23"
       gradientUnits="userSpaceOnUse"
       gradientTransform="matrix(0.75,0,0,0.75,-7.98374e-6,2.65834e-5)"
       spreadMethod="pad"
       id="linearGradient44915"><stop
         style="stop-opacity:1;stop-color:#ff5f5f"
         offset="0"
         id="stop44911" /><stop
         style="stop-opacity:1;stop-color:#e82e34"
         offset="1"
         id="stop44913" /></linearGradient><radialGradient
       id="SVGID_1_"
       cx="85.226997"
       cy="71.662003"
       r="47.776001"
       gradientTransform="matrix(1,0,0,-1,0,103.8)"
       gradientUnits="userSpaceOnUse"><stop
         offset="0"
         stop-color="#00aeff"
         id="stop12" /><stop
         offset=".131"
         stop-color="#00a5f7"
         id="stop14" /><stop
         offset=".345"
         stop-color="#008de0"
         id="stop16" /><stop
         offset=".616"
         stop-color="#0065ba"
         id="stop18" /><stop
         offset=".928"
         stop-color="#002f87"
         id="stop20" /><stop
         offset="1"
         stop-color="#00217a"
         id="stop22" /></radialGradient><linearGradient
       id="SVGID_3_"
       gradientUnits="userSpaceOnUse"
       x1="92.800003"
       y1="72.949997"
       x2="130.763"
       y2="72.949997"
       gradientTransform="matrix(1,0,0,-1,0,103.8)"><stop
         offset="0"
         stop-color="#FFF"
         id="stop29" /><stop
         offset="1"
         stop-color="#FFF"
         stop-opacity="0"
         id="stop31" /></linearGradient><radialGradient
       id="SVGID_4_"
       cx="83.728996"
       cy="73.999001"
       r="8.2860003"
       gradientTransform="matrix(1,0,0,-1,0,103.8)"
       gradientUnits="userSpaceOnUse"><stop
         offset="0"
         stop-color="#FFF"
         id="stop36" /><stop
         offset=".679"
         stop-color="#7a7a7a"
         id="stop38" /><stop
         offset="1"
         stop-color="#404040"
         id="stop40" /></radialGradient><radialGradient
       fx="0"
       fy="0"
       cx="0"
       cy="0"
       r="1"
       gradientUnits="userSpaceOnUse"
       gradientTransform="matrix(0,16.5,-16.5,0,8.999996,0.750012)"
       spreadMethod="pad"
       id="radialGradient3666-6"><stop
         style="stop-color:#ffffff;stop-opacity:1;"
         offset="0"
         id="stop3662-7" /><stop
         style="stop-color:#f7da4d;stop-opacity:1;"
         offset="1"
         id="stop3664-5" /></radialGradient><clipPath
       id="a"><path
         d="M 0,0.113 H 91.887 V 92 H 0 Z m 0,0"
         id="path76179" /></clipPath><clipPath
       id="a-3"><path
         d="M 0,0.113 H 91.887 V 92 H 0 Z m 0,0"
         id="path76179-5" /></clipPath><radialGradient
       fx="0"
       fy="0"
       cx="0"
       cy="0"
       r="1"
       gradientUnits="userSpaceOnUse"
       gradientTransform="matrix(0,16.5,-16.5,0,8.999996,0.750012)"
       spreadMethod="pad"
       id="radialGradient3666-6-2"><stop
         style="stop-color:#ffffff;stop-opacity:1;"
         offset="0"
         id="stop3662-7-9" /><stop
         style="stop-color:#3dc89a;stop-opacity:1;"
         offset="1"
         id="stop3664-5-1" /></radialGradient></defs><path
     d="M 50,5 C 9.0909092,5 5,25.454546 5,50 5,82.727274 17.272728,95 50,95 82.727274,95 95,82.727274 95,50 95,25.454546 90.909093,5 50,5 Z"
     sketch:type="MSShapeGroup"
     id="path6"
     style="font-variation-settings:normal;display:inline;opacity:1;vector-effect:none;fill:#303030;fill-opacity:1;stroke-width:4.56656;stroke-linecap:butt;stroke-linejoin:miter;stroke-miterlimit:4;stroke-dasharray:none;stroke-dashoffset:0;stroke-opacity:1;-inkscape-stroke:none;stop-color:#000000;stop-opacity:1"
     sodipodi:nodetypes="sssss"
     inkscape:label="Shape"
     transform="matrix(0.24444444,0,0,0.24444444,-0.22222222,-0.22222222)"
     sodipodi:insensitive="true" /><g
     inkscape:groupmode="layer"
     id="layer4"
     inkscape:label="Colors References"
     style="display:inline"
     sodipodi:insensitive="true"
     inkscape:highlight-color="#cc5ecc"><rect
       style="display:inline;fill:#3947be;fill-opacity:1;stroke-width:22.6872;paint-order:markers stroke fill"
       id="rect7816"
       width="1.9999923"
       height="2"
       x="12"
       y="-2.9999964"
       rx="0"
       ry="0"
       inkscape:label="Dark Blue" /><rect
       style="display:inline;fill:#6c7ad8;fill-opacity:1;stroke-width:22.6873;paint-order:markers stroke fill"
       id="rect7820"
       width="2"
       height="2.0000076"
       x="9"
       y="-3.0000041"
       rx="0"
       ry="0"
       inkscape:label="Blue" /><rect
       style="display:inline;fill:#33cc33;fill-opacity:1;stroke-width:22.6873;paint-order:markers stroke fill"
       id="rect7814"
       width="2"
       height="2.0000076"
       x="6"
       y="-3.0000041"
       rx="0"
       ry="0"
       inkscape:label="Green" /><rect
       style="display:inline;fill:#ffc328;fill-opacity:1;stroke-width:22.6872;paint-order:markers stroke fill"
       id="rect7824"
       width="1.9999926"
       height="2.0000002"
       x="3"
       y="-2.9999964"
       rx="0"
       ry="0"
       inkscape:label="Yellow" /><rect
       style="display:inline;fill:#cc5e55;fill-opacity:1;stroke-width:22.6873;paint-order:markers stroke fill"
       id="rect7822"
       width="2"
       height="2.0000076"
       x="0"
       y="-3.0000038"
       rx="0"
       ry="0"
       inkscape:label="Red" /><rect
       style="display:inline;fill:#0bb1cb;fill-opacity:1;stroke-width:22.6872;paint-order:markers stroke fill"
       id="rect3087"
       width="1.9999919"
       height="1.9999996"
       x="-3"
       y="12.000004"
       rx="0"
       ry="0"
       inkscape:label="Blue 4" /><rect
       style="display:inline;fill:#2a92c9;fill-opacity:1;stroke-width:22.6873;paint-order:markers stroke fill"
       id="rect3085"
       width="2"
       height="2.0000079"
       x="-3"
       y="8.9999962"
       rx="0"
       ry="0"
       inkscape:label="Blue 3" /><rect
       style="display:inline;fill:#006699;fill-opacity:1;stroke-width:22.6873;paint-order:markers stroke fill"
       id="rect3089"
       width="2"
       height="2.0000076"
       x="-3"
       y="6.0000038"
       rx="0"
       ry="0"
       inkscape:label="Blue 2" /><rect
       style="display:inline;fill:#002a44;fill-opacity:1;stroke-width:22.6873;paint-order:markers stroke fill"
       id="rect3083"
       width="2"
       height="2.0000076"
       x="-3"
       y="2.9999962"
       rx="0"
       ry="0"
       inkscape:label="Blue 1" /><rect
       style="display:inline;fill:#2c2d3d;fill-opacity:1;stroke-width:22.6873;paint-order:markers stroke fill"
       id="rect3456"
       width="2"
       height="2.0000076"
       x="-3"
       y="-3.8146973e-06"
       rx="0"
       ry="0"
       inkscape:label="Gray" /><rect
       style="display:inline;fill:#16171c;fill-opacity:1;stroke-width:22.6872;paint-order:markers stroke fill"
       id="rect3091"
       width="1.9999924"
       height="2"
       x="-3"
       y="-3"
       rx="0"
       ry="0"
       inkscape:label="Black" /></g><g
     id="g116161" /><path
     style="fill:#fdb13a;stroke-width:0.0451876"
     d="M 10.791367,18.956048 C 10.101007,18.856597 9.4420444,18.529232 8.9110509,18.021925 8.4892522,17.61894 8.1917833,17.162453 7.9978268,16.62052 L 7.8572245,16.227665 V 12.002635 7.7776029 L 7.9978268,7.3847477 C 8.1917833,6.8428142 8.4892522,6.3863303 8.9110509,5.9833457 9.4612783,5.4576603 10.095584,5.1501026 10.844296,5.0459676 c 0.427238,-0.059425 3.201606,-0.061998 3.56001,-0.00331 0.576126,0.094348 1.221138,0.5413249 1.48515,1.0291722 0.145752,0.269323 0.270261,0.6941963 0.251427,0.857974 l -0.01435,0.1247985 -2.620874,0.022606 -2.620873,0.022606 -0.228806,0.1207554 c -0.273442,0.1443126 -0.536306,0.423273 -0.668738,0.709681 -0.096268,0.2081993 -0.09658,0.2214044 -0.09658,4.0724053 0,3.851001 3.532e-4,3.864209 0.09658,4.072406 0.132432,0.286411 0.395296,0.565368 0.668738,0.709683 l 0.228806,0.120753 2.620873,0.02261 2.620874,0.02258 0.01435,0.124796 c 0.01883,0.163778 -0.105675,0.588651 -0.251427,0.857974 -0.264012,0.48785 -0.909024,0.934824 -1.48515,1.029175 -0.32605,0.0534 -3.23338,0.04811 -3.612939,-0.0065 z"
     id="path922" /></svg>

<svg xmlns="http://www.w3.org/2000/svg" xml:space="preserve" width="24" height="24" fill="none"><defs><radialGradient id="a" cx="0" cy="0" r="1" gradientTransform="matrix(0 22 -22 0 12 1)" gradientUnits="userSpaceOnUse"><stop offset="0" stop-color="#8FC8FF" style="stop-color:#f6f6f6;stop-opacity:1"/><stop offset="1" stop-color="#0056A8" style="stop-color:#cfcfcf;stop-opacity:1"/></radialGradient></defs><path d="M50 5C9.09 5 5 25.455 5 50c0 32.727 12.273 45 45 45 32.727 0 45-12.273 45-45 0-24.545-4.09-45-45-45Z" style="font-variation-settings:normal;display:inline;opacity:1;vector-effect:none;fill:#303030;fill-opacity:1;stroke-width:4.56656;stroke-linecap:butt;stroke-linejoin:miter;stroke-miterlimit:4;stroke-dasharray:none;stroke-dashoffset:0;stroke-opacity:1;-inkscape-stroke:none;stop-color:#000;stop-opacity:1" transform="matrix(.24444 0 0 .24444 -.222 -.222)"/><g style="display:inline"><rect width="2" height="2" x="12" y="-3" rx="0" ry="0" style="display:inline;fill:#3947be;fill-opacity:1;stroke-width:22.6872;paint-order:markers stroke fill"/><rect width="2" height="2" x="9" y="-3" rx="0" ry="0" style="display:inline;fill:#6c7ad8;fill-opacity:1;stroke-width:22.6873;paint-order:markers stroke fill"/><rect width="2" height="2" x="6" y="-3" rx="0" ry="0" style="display:inline;fill:#3c3;fill-opacity:1;stroke-width:22.6873;paint-order:markers stroke fill"/><rect width="2" height="2" x="3" y="-3" rx="0" ry="0" style="display:inline;fill:#ffc328;fill-opacity:1;stroke-width:22.6872;paint-order:markers stroke fill"/><rect width="2" height="2" y="-3" rx="0" ry="0" style="display:inline;fill:#cc5e55;fill-opacity:1;stroke-width:22.6873;paint-order:markers stroke fill"/><rect width="2" height="2" x="-3" y="12" rx="0" ry="0" style="display:inline;fill:#0bb1cb;fill-opacity:1;stroke-width:22.6872;paint-order:markers stroke fill"/><rect width="2" height="2" x="-3" y="9" rx="0" ry="0" style="display:inline;fill:#2a92c9;fill-opacity:1;stroke-width:22.6873;paint-order:markers stroke fill"/><rect width="2" height="2" x="-3" y="6" rx="0" ry="0" style="display:inline;fill:#069;fill-opacity:1;stroke-width:22.6873;paint-order:markers stroke fill"/><rect width="2" height="2" x="-3" y="3" rx="0" ry="0" style="display:inline;fill:#002a44;fill-opacity:1;stroke-width:22.6873;paint-order:markers stroke fill"/><rect width="2" height="2" x="-3" rx="0" ry="0" style="display:inline;fill:#2c2d3d;fill-opacity:1;stroke-width:22.6873;paint-order:markers stroke fill"/><rect width="2" height="2" x="-3" y="-3" rx="0" ry="0" style="display:inline;fill:#16171c;fill-opacity:1;stroke-width:22.6872;paint-order:markers stroke fill"/></g><path d="M10.791 18.956a3.45 3.45 0 0 1-1.88-.934 3.546 3.546 0 0 1-.913-1.401l-.14-.393v-8.45l.14-.393c.194-.542.491-.999.913-1.402a3.39 3.39 0 0 1 1.933-.937c.428-.06 3.202-.062 3.56-.003.576.094 1.221.541 1.485 1.029.146.27.27.694.252.858l-.014.125-2.621.022-2.621.023-.229.12a1.622 1.622 0 0 0-.669.71c-.096.208-.096.222-.096 4.073 0 3.85 0 3.864.096 4.072.133.286.396.565.669.71l.229.12 2.62.023 2.622.023.014.124c.019.164-.106.59-.252.858-.264.488-.909.935-1.485 1.03-.326.053-3.233.048-3.613-.007z" style="fill:#fdb13a;stroke-width:.0451876"/></svg>
